docs/images/setup-text.svg

<?xml version="1.0" encoding="UTF-8"?>
<svg width="277px" height="53px" viewBox="0 0 277 53" version="1.1" xmlns="http://www.w3.org/2000/svg" xmlns:xlink="http://www.w3.org/1999/xlink">
    <title>Group 9</title>
    <defs>
        <filter id="filter-1">
            <feColorMatrix in="SourceGraphic" type="matrix" values="0 0 0 0 0.106459 0 0 0 0 0.099002 0 0 0 0 0.088012 0 0 0 1.000000 0"></feColorMatrix>
        </filter>
        <polygon id="path-2" points="0 0.554752053 52.8726692 0.554752053 52.8726692 51.6755337 0 51.6755337"></polygon>
        <polygon id="path-4" points="0 52.3239741 277 52.3239741 277 0.323974082 0 0.323974082"></polygon>
    </defs>
    <g id="Page-1" stroke="none" stroke-width="1" fill="none" fill-rule="evenodd">
        <g id="Artboard" transform="translate(-502.000000, -610.000000)">
            <g filter="url(#filter-1)" id="Group-9">
                <g transform="translate(502.000000, 610.000000)">
                    <g id="Group-3" transform="translate(0.000000, 0.323974)">
                        <mask id="mask-3" fill="white">
                            <use xlink:href="#path-2"></use>
                        </mask>
                        <g id="Clip-2"></g>
                        <path d="M34.2282673,32.1041852 C35.474903,33.9599448 35.8148945,34.4098259 36.8915345,35.4782936 C38.1381702,34.4098259 38.4781618,34.01618 40.1214543,32.1041852 L34.2282673,32.1041852 Z M48.1112559,0.554752053 L48.1112559,14.3885964 L49.2460926,14.3885964 C50.3227325,14.3885964 51.2860419,13.8824801 52.8726692,12.5890719 L52.8726692,20.9133924 C51.4560377,22.0943304 49.982741,22.4864565 46.7528212,22.5426916 L44.0313572,22.5426916 C40.3481153,22.4864565 39.7247975,21.8693898 39.838128,18.0454003 L39.838128,8.59637701 L34.1149368,8.59637701 C33.944941,18.4937616 31.6216653,21.4195087 21.7603786,24.3999711 L21.7603786,15.85071 C25.103629,15.0071829 26.2935994,12.4203665 26.1818004,6.34697143 L26.1818004,0.554752053 L48.1112559,0.554752053 Z M20.967065,42.7341465 C24.2536501,42.2827455 27.8802267,41.1595626 29.8650423,39.8646345 C27.8250929,37.4465235 27.4284361,36.7717018 25.0469637,32.1041852 L22.9503491,32.1041852 L22.9503491,24.7936171 L50.7193894,24.7936171 L50.7193894,31.3168933 C48.452779,35.1408828 47.3179423,36.6592315 44.3146835,40.0333399 C48.0545906,41.6656788 49.9260757,42.2280302 52.5893429,42.5092059 L52.5893429,51.6755337 C46.0713066,50.5508309 41.5380858,48.8637767 36.6648734,45.8270791 C32.4716442,48.5263658 27.1451098,50.4383606 20.967065,51.5068282 L20.967065,42.7341465 Z M8.89736468,43.4074483 L12.6372718,43.4074483 L12.6372718,39.5834588 L8.89736468,39.5834588 L8.89736468,43.4074483 Z M2.04086825,32.0479501 L19.551965,32.0479501 L19.551965,25.5246739 L2.04086825,25.5246739 L2.04086825,32.0479501 Z M2.04086825,23.8376197 L19.551965,23.8376197 L19.551965,17.4830489 L2.04086825,17.4830489 L2.04086825,23.8376197 Z M1.75601045,7.3029688 L19.6070988,7.3029688 L19.6070988,0.890643021 L1.75601045,0.890643021 L1.75601045,7.3029688 Z M20.4004124,33.228888 L20.4004124,43.5761537 C20.5719397,48.976247 18.7004546,50.7757714 12.8072676,50.8882417 L1.18935786,50.8882417 L1.18935786,33.228888 L20.4004124,33.228888 Z M-0.000612597403,15.7944749 L21.4203871,15.7944749 L21.4203871,8.87755271 L-0.000612597403,8.87755271 L-0.000612597403,15.7944749 Z" id="Fill-1" fill="#231916" mask="url(#mask-3)"></path>
                    </g>
                    <mask id="mask-5" fill="white">
                        <use xlink:href="#path-4"></use>
                    </mask>
                    <g id="Clip-5"></g>
                    <path d="M73.4927449,24.6241628 L92.7324667,24.6241628 L92.7324667,22.0126251 L73.4927449,22.0126251 L73.4927449,24.6241628 Z M70.1931681,43.926832 L95.4168682,43.926832 L95.4168682,40.350161 L70.1931681,40.350161 L70.1931681,43.926832 Z M67.0039299,15.7661095 L98.3249698,15.7661095 L98.3249698,13.0410268 L67.0039299,13.0410268 L67.0039299,15.7661095 Z M64.2636034,5.71736697 L60.8521765,0.323974082 L71.1998186,0.323974082 L74.5553204,5.71736697 L78.2463724,5.71736697 L75.1145707,0.323974082 L85.1810762,0.323974082 L88.4262394,5.71736697 L92.0054414,5.71736697 L94.4102177,0.323974082 L105.259674,0.323974082 L102.016022,5.71736697 L108,5.71736697 L108,16.6176979 L102.351572,16.6176979 L102.351572,23.4887116 C102.407497,28.7685594 100.338271,30.869144 95.025393,30.7555989 L88.1466143,30.7555989 L86.6366385,33.1968188 L105.259674,33.1968188 L105.259674,44.0971497 C105.035973,50.2868928 103.525998,51.4791165 96.1438936,51.3087988 L60.8521765,51.3087988 L60.8521765,33.1968188 L76.2330713,33.1968188 L77.3515719,30.7555989 L63.9280532,30.7555989 L63.9280532,16.6176979 L58,16.6176979 L58,5.71736697 L64.2636034,5.71736697 Z" id="Fill-4" fill="#231916" mask="url(#mask-5)"></path>
                    <path d="M141.776324,27.1869902 L147.286306,27.1869902 L147.286306,25.2920762 L141.776324,25.2920762 L141.776324,27.1869902 Z M141.776324,19.5516012 L147.286306,19.5516012 L147.286306,17.5452216 L141.776324,17.5452216 L141.776324,19.5516012 Z M141.776324,12.137637 L147.286306,12.137637 L147.286306,10.1869902 L141.776324,10.1869902 L141.776324,12.137637 Z M129.463202,21.1121187 C128.619838,29.3605681 123.840772,34.3207843 115.293159,35.8813017 L115.293159,27.1869902 C118.891514,26.1838004 120.634468,24.2888864 120.915589,21.1121187 L129.463202,21.1121187 Z M128.563614,19.9402243 C126.481795,19.607334 126.314642,19.607334 124.007926,19.2729374 C119.903552,18.7713425 119.791103,18.7713425 117.261009,18.4354396 L115.293159,18.2125085 L115.293159,10.6328523 C121.084262,11.19018 126.200673,11.8589732 128.563614,12.3048353 L128.563614,19.9402243 Z M128.563614,10.465654 C126.145969,9.96405914 120.578243,9.18380042 115.293159,8.62647275 L115.293159,1.32397408 C118.722841,1.65987697 120.971813,1.88280804 122.041595,1.99427357 C123.053632,2.1057391 124.85281,2.32716387 128.563614,2.82875877 L128.563614,10.465654 Z M135.029408,36.6058277 L135.029408,33.7634566 L132.611763,33.7634566 L132.611763,18.5484114 L130.419016,19.9959571 L130.419016,10.6885851 C133.286455,8.45927445 135.647876,5.11530848 136.997259,1.38121314 L146.669358,1.38121314 L144.98111,4.22358422 L149.70547,4.22358422 L151.279751,1.38121314 L161.175228,1.38121314 L159.038704,4.22358422 L164.098892,4.22358422 L164.098892,10.1869902 L155.833919,10.1869902 L155.833919,12.137637 L163.4242,12.137637 L163.4242,17.5452216 L155.833919,17.5452216 L155.833919,19.5516012 L163.4242,19.5516012 L163.4242,25.2920762 L155.833919,25.2920762 L155.833919,27.1869902 L164.492462,27.1869902 L164.492462,33.7634566 L144.587539,33.7634566 L144.587539,36.6058277 L165,36.6058277 L165,44.0197919 L144.587539,44.0197919 L144.587539,52.3239741 L135.029408,52.3239741 L135.029408,44.0197919 L114,44.0197919 L114,36.6058277 L135.029408,36.6058277 Z" id="Fill-6" fill="#231916" mask="url(#mask-5)"></path>
                    <path d="M209.093424,43.6747092 L212.634166,43.6747092 L212.634166,41.6528032 L209.093424,41.6528032 L209.093424,43.6747092 Z M209.093424,36.0348795 L212.634166,36.0348795 L212.634166,34.2937937 L209.093424,34.2937937 L209.093424,36.0348795 Z M209.093424,29.688341 L212.634166,29.688341 L212.634166,27.8910912 L209.093424,27.8910912 L209.093424,29.688341 Z M201.212418,12.6691137 L207.323053,12.6691137 L207.323053,10.8718638 L201.212418,10.8718638 L201.212418,12.6691137 Z M197.270371,36.0348795 L201.039548,36.0348795 L201.039548,34.2937937 L197.270371,34.2937937 L197.270371,36.0348795 Z M197.270371,29.688341 L201.039548,29.688341 L201.039548,27.8910912 L197.270371,27.8910912 L197.270371,29.688341 Z M169,19.3541544 C173.454482,14.5225276 176.25281,8.90612183 178.08029,1.32397408 L187.219232,1.32397408 L186.819471,3.57053638 L192.473237,3.57053638 L192.473237,1.32397408 L201.212418,1.32397408 L201.212418,3.57053638 L207.323053,3.57053638 L207.323053,1.32397408 L216.003582,1.32397408 L216.003582,3.57053638 L222,3.57053638 L222,10.8718638 L216.003582,10.8718638 L216.003582,12.6691137 L221.942891,12.6691137 L222,19.6349747 L194.12939,19.6349747 L194.12939,21.6568808 L221.087804,21.6568808 L221.087804,44.403324 C221.200478,49.7965915 219.487215,51.5938413 214.061885,52.0431538 L209.378968,52.0431538 L209.378968,49.0664588 L201.039548,49.0664588 L201.039548,41.6528032 L197.270371,41.6528032 L197.270371,52.3239741 L189.560691,52.3239741 L189.560691,44.403324 C187.33345,48.7856385 185.563079,50.6390524 182.763207,51.4253492 L182.763207,40.2471838 C184.649339,38.2252777 185.448861,35.529403 185.448861,30.9801143 L185.448861,12.6691137 L192.473237,12.6691137 L192.473237,10.8718638 L184.478013,10.8718638 C183.507164,13.3992464 183.164512,14.1855432 182.020793,15.9827931 L182.020793,52.0993179 L173.111829,52.0993179 L173.111829,27.7787631 C171.28435,29.4636848 170.599045,29.9691613 169,30.9239503 L169,19.3541544 Z" id="Fill-7" fill="#231916" mask="url(#mask-5)"></path>
                    <path d="M257.299088,28.8681531 L266.736634,28.8681531 L266.736634,17.3043488 L257.299088,17.3043488 L257.299088,28.8681531 Z M237.118132,28.8681531 L246.783052,28.8681531 L246.783052,17.3043488 L237.118132,17.3043488 L237.118132,28.8681531 Z M246.783052,8.42316598 L246.783052,0.323974082 L257.300624,0.323974082 L257.300624,8.42316598 L276.968453,8.42316598 L276.968453,29.0915791 C277.25267,35.2916501 275.661054,37.414197 270.374614,37.8051924 L257.300624,37.8051924 L257.300624,51.3239741 L246.783052,51.3239741 L246.783052,37.8051924 L227,37.8051924 L227,8.42316598 L246.783052,8.42316598 Z" id="Fill-8" fill="#231916" mask="url(#mask-5)"></path>
                </g>
            </g>
        </g>
    </g>
</svg>

<svg width="277" height="53" xmlns="http://www.w3.org/2000/svg" xmlns:xlink="http://www.w3.org/1999/xlink"><defs><path id="b" d="M0 .555h52.873v51.12H0z"/><path id="d" d="M0 52.324h277v-52H0z"/><filter id="a"><feColorMatrix in="SourceGraphic" values="0 0 0 0 0.106459 0 0 0 0 0.099002 0 0 0 0 0.088012 0 0 0 1.000000 0"/></filter></defs><g filter="url(#a)" transform="translate(-502 -610)" fill="none" fill-rule="evenodd"><g transform="translate(502 610)"><g transform="translate(0 .324)"><mask id="c" fill="#fff"><use xlink:href="#b"/></mask><path d="M34.228 32.104c1.247 1.856 1.587 2.306 2.664 3.374 1.246-1.068 1.586-1.462 3.23-3.374h-5.894zM48.111.554V14.39h1.135c1.077 0 2.04-.507 3.627-1.8v8.324c-1.417 1.181-2.89 1.573-6.12 1.63H44.03c-3.683-.057-4.306-.674-4.193-4.498V8.596h-5.723c-.17 9.898-2.493 12.824-12.355 15.804v-8.55c3.344-.843 4.534-3.43 4.422-9.503V.555h21.93zm-27.144 42.18c3.287-.451 6.913-1.574 8.898-2.87-2.04-2.417-2.437-3.092-4.818-7.76H22.95v-7.31h27.77v6.523c-2.267 3.824-3.402 5.342-6.405 8.716 3.74 1.633 5.611 2.195 8.274 2.476v9.167c-6.518-1.125-11.05-2.812-15.924-5.849-4.193 2.7-9.52 4.611-15.698 5.68v-8.773zm-12.07.673h3.74v-3.824h-3.74v3.824zM2.041 32.048h17.511v-6.523H2.041v6.523zm0-8.21h17.511v-6.355H2.041v6.355zM1.756 7.303h17.851V.891H1.756v6.412zM20.4 33.229v10.347c.172 5.4-1.7 7.2-7.593 7.312H1.19v-17.66H20.4zM0 15.794h21.42V8.878H0v6.916z" fill="#231916" mask="url(#c)"/></g><mask id="e" fill="#fff"><use xlink:href="#d"/></mask><path d="M73.493 24.624h19.24v-2.611h-19.24v2.611zm-3.3 19.303h25.224V40.35H70.193v3.577zm-3.19-28.16h31.322V13.04H67.004v2.725zm-2.74-10.05L60.854.324H71.2l3.355 5.393h3.691L75.115.324H85.18l3.245 5.393h3.58L94.41.324h10.85l-3.244 5.393H108v10.9h-5.648v6.872c.055 5.28-2.014 7.38-7.327 7.267h-6.878l-1.51 2.44h18.623v10.901c-.224 6.19-1.734 7.382-9.116 7.212H60.852V33.197h15.381l1.119-2.441H63.928V16.618H58v-10.9h6.264zM141.776 27.187h5.51v-1.895h-5.51v1.895zm0-7.635h5.51v-2.007h-5.51v2.007zm0-7.414h5.51v-1.951h-5.51v1.95zm-12.313 8.974c-.843 8.249-5.622 13.209-14.17 14.77v-8.695c3.599-1.003 5.341-2.898 5.623-6.075h8.547zm-.9-1.172c-2.081-.333-2.248-.333-4.555-.667-4.104-.502-4.217-.502-6.747-.838l-1.968-.222v-7.58c5.791.557 10.908 1.226 13.27 1.672v7.635zm0-9.474c-2.417-.502-7.985-1.282-13.27-1.84V1.324c3.43.336 5.679.559 6.749.67 1.012.112 2.81.333 6.522.835v7.637zm6.466 26.14v-2.843h-2.417V18.548l-2.193 1.448v-9.307c2.867-2.23 5.229-5.574 6.578-9.308h9.672l-1.688 2.843h4.724l1.575-2.843h9.895l-2.136 2.843h5.06v5.963h-8.265v1.95h7.59v5.408h-7.59v2.007h7.59v5.74h-7.59v1.895h8.658v6.576h-19.904v2.843H165v7.414h-20.412v8.304h-9.559V44.02H114v-7.414h21.03zM209.093 43.675h3.541v-2.022h-3.54v2.022zm0-7.64h3.541v-1.741h-3.54v1.74zm0-6.347h3.541v-1.797h-3.54v1.797zm-7.88-17.019h6.11v-1.797h-6.11v1.797zm-3.943 23.366h3.77v-1.741h-3.77v1.74zm0-6.347h3.77v-1.797h-3.77v1.797zM169 19.354c4.454-4.831 7.253-10.448 9.08-18.03h9.14l-.4 2.247h5.653V1.324h8.74v2.247h6.11V1.324h8.68v2.247H222v7.3h-5.996v1.798h5.939l.057 6.966h-27.87v2.022h26.958v22.746c.112 5.394-1.6 7.19-7.026 7.64h-4.683v-2.977h-8.34v-7.413h-3.769v10.671h-7.71v-7.92c-2.227 4.382-3.997 6.235-6.797 7.021V40.247c1.886-2.022 2.686-4.718 2.686-9.267V12.67h7.024v-1.798h-7.995c-.97 2.527-1.313 3.314-2.457 5.11V52.1h-8.91V27.78c-1.827 1.685-2.512 2.19-4.111 3.145v-11.57zM257.3 28.868h9.437V17.304h-9.438v11.564zm-20.182 0h9.665V17.304h-9.665v11.564zm9.665-20.445V.324h10.518v8.1h19.667v20.668c.285 6.2-1.307 8.322-6.593 8.713H257.3v13.519h-10.518V37.805H227V8.423h19.783z" fill="#231916" mask="url(#e)"/></g></g></svg>
